assets/slashes-overprint.svg

<svg viewBox="0 0 82.48 79" xmlns="http://www.w3.org/2000/svg"><g fill="#ec008c"><path d="m42.1 5.37-11.19 19.37-13 22.56-11.16 19.28a3.58 3.58 0 0 1 -3.15 1.86h-.07a3.61 3.61 0 0 0 1.34 4.89 3.68 3.68 0 0 0 1.8.48h.33a1.86 1.86 0 0 1 .1-.2l11.14-19.34 13-22.57 11.16-19.28v-.05a3.6 3.6 0 0 1 2.81-1.79 3.6 3.6 0 0 0 -1.42-4.73 3.49 3.49 0 0 0 -1.72-.48"/><path d="m58.76 5.37-11.18 19.37-13 22.56-11.16 19.28a3.6 3.6 0 0 1 -3.12 1.81h-.08a3.61 3.61 0 0 0 1.34 4.89 3.68 3.68 0 0 0 1.8.48h.31c0-.07.07-.13.1-.2l11.13-19.29 13-22.57 11.16-19.28v-.05a3.63 3.63 0 0 1 2.82-1.79 3.6 3.6 0 0 0 -1.42-4.73 3.53 3.53 0 0 0 -1.73-.48"/><path d="m75.43 5.37-11.19 19.37-13 22.56-11.15 19.28a3.61 3.61 0 0 1 -3.13 1.81h-.07a3.61 3.61 0 0 0 1.34 4.89 3.68 3.68 0 0 0 1.8.48h.31a1.86 1.86 0 0 1 .1-.2l11.13-19.29 13-22.57 11.16-19.28v-.05a3.6 3.6 0 0 1 2.81-1.79 3.6 3.6 0 0 0 -1.42-4.73 3.46 3.46 0 0 0 -1.72-.48"/></g><path d="m39 0a3.62 3.62 0 0 0 -3.13 1.8v.06l-11.2 19.27-13 22.57-11.16 19.3v.05a3.61 3.61 0 0 0 1.29 4.95 3.53 3.53 0 0 0 1.73.48l11.18-19.41 13-22.57 11.16-19.28a3.6 3.6 0 0 1 3.13-1.86h.08a3.62 3.62 0 0 0 -1.32-4.88 3.68 3.68 0 0 0 -1.76-.48" fill="#00aeef"/><path d="m42 5.36a3.6 3.6 0 0 0 -3.1 1.81l-11.16 19.33-13 22.57-11.16 19.27h.02a3.58 3.58 0 0 0 3.12-1.81l11.16-19.23 13-22.56 11.12-19.28" fill="#000085"/><path d="m55.62 0a3.62 3.62 0 0 0 -3.12 1.8v.06l-5.29 9.14.14.08a3.61 3.61 0 0 1 1.32 4.92l-11.16 19.3-13 22.57-5.9 10.13a3.63 3.63 0 0 0 1.58.4l11.18-19.33 13-22.57 11.16-19.28a3.61 3.61 0 0 1 3.13-1.81h.07a3.61 3.61 0 0 0 -1.31-4.93 3.68 3.68 0 0 0 -1.8-.48" fill="#00aeef"/><path d="m58.69 5.36a3.61 3.61 0 0 0 -3.13 1.81l-11.16 19.33-13 22.57-11.16 19.27h.08a3.6 3.6 0 0 0 3.12-1.81l11.11-19.23 13-22.56 11.16-19.28h-.07" fill="#000085"/><path d="m72.29 0a3.62 3.62 0 0 0 -3.13 1.8v.06l-5.29 9.14.15.08a3.6 3.6 0 0 1 1.31 4.92l-11.15 19.3-13 22.57-5.9 10.13a3.56 3.56 0 0 0 1.58.4l11.14-19.33 13-22.57 11.2-19.28a3.6 3.6 0 0 1 3.12-1.81h.08a3.61 3.61 0 0 0 -1.31-4.93 3.68 3.68 0 0 0 -1.8-.48" fill="#00aeef"/><path d="m75.35 5.36a3.6 3.6 0 0 0 -3.12 1.81l-11.16 19.33-13.07 22.57-11.09 19.27h.07a3.61 3.61 0 0 0 3.13-1.81l11.11-19.23 13-22.56 11.16-19.28h-.08" fill="#000085"/><path d="m45.55 10.57h-.31a1.74 1.74 0 0 1 -.1.19v.05l-11.14 19.29-13 22.57-11.18 19.33v.06a3.6 3.6 0 0 1 -2.82 1.73 3.6 3.6 0 0 0 6.34 3.41v-.06l5.27-9.14h-.14a3.59 3.59 0 0 1 -1.32-5v-.05l11.16-19.25 13-22.57 5.9-10.13a3.66 3.66 0 0 0 -1.66-.4" fill="#fff200"/><path d="m45.24 10.58a3.6 3.6 0 0 0 -2.81 1.79v.05l-11.16 19.28-13 22.57-11.16 19.27a1.86 1.86 0 0 0 -.1.2 3.6 3.6 0 0 0 2.78-1.74v-.06l11.21-19.27 13-22.57 11.11-19.28v-.05a1.74 1.74 0 0 0 .1-.19" fill="#ec0000"/><path d="m47.21 11-5.87 10.13-13 22.57-11.16 19.3v.05a3.59 3.59 0 0 0 1.29 4.95l.14.08 5.87-10.16 13-22.57 11.16-19.35a3.61 3.61 0 0 0 -1.32-4.92z" fill="#0a0"/><path d="m62.22 10.57h-.31l-.1.19v.05l-11.16 19.29-13 22.57-11.16 19.33v.06a3.63 3.63 0 0 1 -2.82 1.79 3.6 3.6 0 0 0 1.42 4.73 3.68 3.68 0 0 0 1.8.48 3.62 3.62 0 0 0 3.11-1.86v-.06l5.28-9.14h-.15a3.61 3.61 0 0 1 -1.32-5v-.05l11.19-19.25 13-22.57 5.87-10.13a3.62 3.62 0 0 0 -1.65-.4" fill="#fff200"/><path d="m61.91 10.58a3.63 3.63 0 0 0 -2.82 1.79v.05l-11.16 19.28-13 22.57-11.16 19.27c0 .07-.07.13-.1.2a3.63 3.63 0 0 0 2.79-1.74v-.06l11.16-19.27 13-22.57 11.15-19.28v-.05l.1-.19" fill="#ec0000"/><path d="m63.87 11-5.87 10.13-13 22.57-11.16 19.3v.05a3.61 3.61 0 0 0 1.29 4.95l.15.08 5.87-10.16 13-22.57 11.15-19.35a3.6 3.6 0 0 0 -1.3-4.95z" fill="#0a0"/><path d="m78.88 10.57h-.31a1.74 1.74 0 0 1 -.1.19v.05l-11.16 19.29-13 22.57-11.16 19.33v.06a3.6 3.6 0 0 1 -2.81 1.79 3.6 3.6 0 0 0 1.42 4.73 3.68 3.68 0 0 0 1.8.48 3.62 3.62 0 0 0 3.12-1.8v-.06l11.13-19.33 13-22.57 11.19-19.3a3.6 3.6 0 0 0 -3.12-5.4" fill="#fff200"/><path d="m78.57 10.58a3.6 3.6 0 0 0 -2.81 1.79v.05l-11.16 19.28-13 22.57-11.16 19.27a1.86 1.86 0 0 0 -.1.2 3.6 3.6 0 0 0 2.78-1.74v-.06l11.16-19.27 13-22.57 11.16-19.28v-.05a1.74 1.74 0 0 0 .1-.19" fill="#ec0000"/></svg>

<svg xmlns="http://www.w3.org/2000/svg" viewBox="0 0 82.48 79"><defs><style>.cls-1{isolation:isolate;}.cls-2{mix-blend-mode:color-burn;}.cls-3{fill:#ec008c;}.cls-4{fill:#00aeff;}.cls-5{fill:#ff0;}</style></defs><g class="cls-1"><g id="Layer_2" data-name="Layer 2"><g id="Layer_1-2" data-name="Layer 1"><g class="cls-2"><path class="cls-3" d="M38.9,7.17a3.6,3.6,0,1,1,6.24,3.6l0,.05h0L34,30.1,21,52.67,9.82,72h0l0,.06a3.6,3.6,0,1,1-6.24-3.61l0,0h0L14.71,49.06l13-22.56L38.87,7.22h0Z"/><path class="cls-3" d="M55.56,7.17a3.61,3.61,0,0,1,6.25,3.6l0,.05h0L50.65,30.1l-13,22.57L26.49,72h0s0,0,0,.06a3.61,3.61,0,0,1-6.25-3.61l0,0h0L31.37,49.06l13-22.56L55.53,7.22h0S55.55,7.18,55.56,7.17Z"/><path class="cls-3" d="M72.23,7.17a3.6,3.6,0,0,1,6.24,3.6l0,.05h0L67.31,30.1l-13,22.57L43.15,72h0l0,.06a3.6,3.6,0,1,1-6.24-3.61l0,0h0L48,49.06l13-22.56L72.2,7.22h0Z"/></g><g class="cls-2"><path class="cls-4" d="M35.83,1.8a3.6,3.6,0,1,1,6.24,3.61l0,0h0L30.91,24.74l-13,22.56L6.75,66.58h0l0,0A3.6,3.6,0,1,1,.48,63l0-.05h0L11.64,43.7l13-22.57L35.8,1.85h0S35.82,1.82,35.83,1.8Z"/><path class="cls-4" d="M52.5,1.8a3.6,3.6,0,1,1,6.24,3.61l0,0h0L47.58,24.74l-13,22.56L23.42,66.58h0l0,0A3.6,3.6,0,1,1,17.15,63l0-.05h0L28.31,43.7l13-22.57L52.47,1.85h0Z"/><path class="cls-4" d="M69.16,1.8a3.61,3.61,0,0,1,6.25,3.61.1.1,0,0,0,0,0h0L64.25,24.74l-13,22.56L40.09,66.58h0s0,0,0,0A3.61,3.61,0,0,1,33.81,63l0-.05h0L45,43.7,58,21.13,69.13,1.85h0S69.15,1.82,69.16,1.8Z"/></g><g class="cls-2"><path class="cls-5" d="M42.43,12.37A3.6,3.6,0,1,1,48.67,16l0,0h0L37.51,35.3l-13,22.57L13.35,77.15h0l0,.06a3.6,3.6,0,1,1-6.24-3.61l0,0h0L18.24,54.26l13-22.56L42.4,12.42h0Z"/><path class="cls-5" d="M59.09,12.37A3.6,3.6,0,1,1,65.33,16l0,0h0L54.18,35.3l-13,22.57L30,77.15h0s0,0,0,.06a3.61,3.61,0,0,1-6.25-3.61l0,0h0L34.9,54.26l13-22.56L59.06,12.42h0S59.08,12.38,59.09,12.37Z"/><path class="cls-5" d="M75.76,12.37A3.6,3.6,0,0,1,82,16l0,0h0L70.84,35.3l-13,22.57L46.68,77.15h0l0,.06a3.6,3.6,0,1,1-6.24-3.61l0,0h0L51.57,54.26l13-22.56L75.73,12.42h0Z"/></g></g></g></g></svg>
